X: 1
T:Fairhaired Mary
T:Fairheaded Mary
R:reel
D:Bothy Band: Old Hag You've Killed Me
Z:id:hn-reel-419
M:C|
K:Edor
EBBA B2AG|(3FED AD BDAF|EBBA ~B3c|1 dBA=c BEED:|2 dBA=c BE~E2||
e2Be ~e2fe|dB~B2 d2Bd|e2Be ~e2fe|dBA=c BE~E2|
e2Be ~e2fe|dB~B2 dcde|~f3e defe|dBA=c BEED||
"variations"
EBBA B2AG|(3FED AD BDAF|EBBA ~B3e|1 dBAd BEED:|2 dBAd BE~E2||
e2Be edfe|dB~B2 ~d3f|e2Be edfe|dBAd BE~E2|
e2Be edfe|dB~B2 ~d3e|~f3e def2|dBAd BFAF||
